X: 226
T:Lectio actuum apostolorum / Facta autem hac voce
N: Derived from Jos1912-Lectio_actuum_apostolorum.krn
C: Josquin des Prez
%%abc-version 2.0
%%abcx-abcm2ps-target-version 5.9.1 (29 Sep 2008)
%%abc-creator hum2abc beta
%%abcx-conversion-date 2019/02/12 16:15:49
%%abc-edited-by Jesse Rodin
%%abc-edited-by Victoria Chang
%%abcx-initial-encoding-date 2011/03/22/
%%humdrum-veritas 2874437654
%%humdrum-veritas-data 2091703472
%%linebreak <none>
%%barnumbers 0
L: 1/4
M: 2/1
Q: 1/2=120
V: 1 clef=treble
V: 2 clef=treble-8
V: 3 clef=treble-8
V: 4 clef=treble-8
V: 5 clef=bass
K: C
[V:1] A8 | 
[V:2] e8 | 
[V:3] z8 | 
[V:4] A8 | 
[V:5] A,,8- | 
[V:1] A4A4 | 
[V:2] e4e4 | 
[V:3] z8 | 
[V:4] c4c4 | 
[V:5] A,,4A,,4 | 
[V:1] A8- | 
[V:2] f8- | 
[V:3] z8 | 
[V:4] d8- | 
[V:5] D,8- | 
[V:1] A4A4 | 
[V:2] f4f4 | 
[V:3] z8 | 
[V:4] d4d4 | 
[V:5] D,8 | 
[V:1] A8 | 
[V:2] f6ed | 
[V:3] z8 | 
[V:4] d6cB | 
[V:5] D,4D,4 | 
[V:1] A8 | 
[V:2] e3de2f2- | 
[V:3] z8 | 
[V:4] c3Bc2d2- | 
[V:5] A,,4z4 | 
[V:1] A8 | 
[V:2] f2e2f2ed | 
[V:3] z8 | 
[V:4] d2c2d2cB | 
[V:5] z8 | 
[V:1] c8 | 
[V:2] e3fg2a2- | 
[V:3] z8 | 
[V:4] ABcde2f2- | 
[V:5] z8 | 
[V:1] A4A4 | 
[V:2] agf4ed | 
[V:3] z8 | 
[V:4] fed4cB | 
[V:5] z8 | 
[V:1] A4z2A2 | 
[V:2] e4z2e2 | 
[V:3] z8 | 
[V:4] A4z2A2 | 
[V:5] z8 | 
[V:1] F4A4 | 
[V:2] d4e4 | 
[V:3] z8 | 
[V:4] D4A4 | 
[V:5] z8 | 
[V:1] A4A4 | 
[V:2] e4f4 | 
[V:3] z8 | 
[V:4] c4d4 | 
[V:5] z8 | 
[V:1] A4z4 ||  
[V:2] e4z4 ||  
[V:3] z8 ||  
[V:4] A4z4 ||  
[V:5] z8 ||  
[V:1]  [K:C] [K:clef=treble][M:2/1]A8 | 
[V:2]  [K:C] [K:clef=treble-8][M:2/1]e8 | 
[V:3]  [K:C] [K:clef=treble-8][M:2/1]z8 | 
[V:4]  [K:C] [K:clef=treble-8][M:2/1]A8 | 
[V:5]  [K:C] [K:clef=bass][M:2/1]A,8 | 
[V:1] A4A4 | 
[V:2] e4e4 | 
[V:3] z8 | 
[V:4] c4c4 | 
[V:5] A,4A,4 | 
[V:1] A8 | 
[V:2] f4e4- | 
[V:3] z8 | 
[V:4] d4c4- | 
[V:5] D,4A,4 | 
[V:1] G8 | 
[V:2] e4e4 | 
[V:3] z8 | 
[V:4] c2B2B4 | 
[V:5] E,8 | 
[V:1] G4G4 | 
[V:2] e4e4 | 
[V:3] z8 | 
[V:4] c4B4 | 
[V:5] E,4E,4 | 
[V:1] G4G4 | 
[V:2] d4e4- | 
[V:3] z8 | 
[V:4] B4B4 | 
[V:5] G,4G,4 | 
[V:1] A8 | 
[V:2] e2dcd4 | 
[V:3] z8 | 
[V:4] c4A4 | 
[V:5] F,8 | 
[V:1] G8- | 
[V:2] e8 | 
[V:3] z8 | 
[V:4] B8- | 
[V:5] E,8- | 
[V:1] G8 | 
[V:2] z4e4 | 
[V:3] z8 | 
[V:4] B8 | 
[V:5] E,8 | 
[V:1] z4G4 | 
[V:2] e6dc | 
[V:3] z8 | 
[V:4] z8 | 
[V:5] z8 | 
[V:1] G4A4 | 
[V:2] B2c3Ac2- | 
[V:3] z8 | 
[V:4] z8 | 
[V:5] z8 | 
[V:1] G4z2E2 | 
[V:2] c2BAG2A2- | 
[V:3] z8 | 
[V:4] z8 | 
[V:5] z8 | 
[V:1] F4F4 | 
[V:2] AGFED2A2- | 
[V:3] z8 | 
[V:4] z8 | 
[V:5] z8 | 
[V:1] E4z2E2 | 
[V:2] A2GFG2A2 | 
[V:3] z8 | 
[V:4] z8 | 
[V:5] z8 | 
[V:1] E2DCD2E2 | 
[V:2] c4z2c2- | 
[V:3] z8 | 
[V:4] z8 | 
[V:5] z8 | 
[V:1] G4F4 | 
[V:2] cBe4d2 | 
[V:3] z8 | 
[V:4] z8 | 
[V:5] z8 | 
[V:1] E3CG4- | 
[V:2] e4z2e2- | 
[V:3] z8 | 
[V:4] z4B4 | 
[V:5] z4E,4- | 
[V:1] G2G2G4 | 
[V:2] e2e2e4 | 
[V:3] z8 | 
[V:4] B6c2 | 
[V:5] E,2E,2E,4 | 
[V:1] F3GAGA2- | 
[V:2] A8 | 
[V:3] z8 | 
[V:4] d4c3B/A/ | 
[V:5] D,4F,4 | 
[V:1] A2^G^FG4 | 
[V:2] e8 | 
[V:3] z8 | 
[V:4] B4B4 | 
[V:5] E,8 | 
[V:1] A4z2A2 | 
[V:2] e4z2e2 | 
[V:3] E8- | 
[V:4] A8 | 
[V:5] A,,8 | 
[V:1] c4c4 | 
[V:2] e4e4 | 
[V:3] E8 | 
[V:4] z4A4 | 
[V:5] A,,8 | 
[V:1] B8 | 
[V:2] e6E2- | 
[V:3] G8 | 
[V:4] B4B4 | 
[V:5] E,4E,4 | 
[V:1] z2A2A4 | 
[V:2] E2E4F2 | 
[V:3] A8 | 
[V:4] c8 | 
[V:5] A,,8 | 
[V:1] G2A4GF | 
[V:2] E2F4ED | 
[V:3] c8 | 
[V:4] z8 | 
[V:5] z8 | 
[V:1] E4z4 | 
[V:2] G4z4 | 
[V:3] c8 | 
[V:4] z2E2G2A2 | 
[V:5] C,3D,E,C,F,2 | 
[V:1] z8 | 
[V:2] z8 | 
[V:3] c8 | 
[V:4] G2A4GF | 
[V:5] E,2F,4E,D, | 
[V:1] z4c4 | 
[V:2] e8- | 
[V:3] c8 | 
[V:4] E3FGEA2- | 
[V:5] C,6A,,2 | 
[V:1] c8 | 
[V:2] e4e4 | 
[V:3] c8 | 
[V:4] A2GFE4 | 
[V:5] A,,4C,4 | 
[V:1] B3ABAGF | 
[V:2] g6g2- | 
[V:3] d8 | 
[V:4] D4G4- | 
[V:5] G,,4G,,4 | 
[V:1] E3FG2A2- | 
[V:2] gfede4 | 
[V:3] c8 | 
[V:4] G4C4 | 
[V:5] C,4z4 | 
[V:1] A2^G^FG4 | 
[V:2] z2d2B4 | 
[V:3] B8 | 
[V:4] D4E4 | 
[V:5] z8 | 
[V:1] A8 | 
[V:2] c3Bcde2- | 
[V:3] A8 | 
[V:4] E8 | 
[V:5] A,,4A,,4 | 
[V:1] G4z2B2 | 
[V:2] efg3fe2- | 
[V:3] B8 | 
[V:4] z4E4 | 
[V:5] E,4E,4 | 
[V:1] c3BAGA2- | 
[V:2] e2c2e4 | 
[V:3] A8- | 
[V:4] E4E4 | 
[V:5] A,,4A,,4 | 
[V:1] A2A2d4- | 
[V:2] d4z2d2- | 
[V:3] A8 | 
[V:4] F4F4 | 
[V:5] D,4D,4 | 
[V:1] d2d2c2c2 | 
[V:2] d2g3fed | 
[V:3] G8 | 
[V:4] D4E4- | 
[V:5] B,,4C,4 | 
[V:1] c3B/A/c4 | 
[V:2] c8 | 
[V:3] z4A4 | 
[V:4] E2C2E3F | 
[V:5] A,,4A,,4 | 
[V:1] B6A2- | 
[V:2] z2d6 | 
[V:3] D2G4F2 | 
[V:4] G3F/E/D3F | 
[V:5] G,,4z2D,2 | 
[V:1] AGG4^F2 | 
[V:2] e3d/c/d4 | 
[V:3] G4A4 | 
[V:4] E2C2F2D2 | 
[V:5] C,2E,2D,4 | 
[V:1] G8 | 
[V:2] B8 | 
[V:3] G8 | 
[V:4] D2d3Bd2- | 
[V:5] G,,8 | 
[V:1] z8 | 
[V:2] z8 | 
[V:3] z8 | 
[V:4] dcBAB2d2- | 
[V:5] z2G,4G,2 | 
[V:1] z8 | 
[V:2] z8 | 
[V:3] z8 | 
[V:4] dc/B/A2z2A2 | 
[V:5] D,4F,4 | 
[V:1] z8 | 
[V:2] z8 | 
[V:3] z8 | 
[V:4] B2c3B/A/B2 | 
[V:5] E,4D,4 | 
[V:1] z8 | 
[V:2] z8 | 
[V:3] z8 | 
[V:4] E2A3^G/^F/^G2 | 
[V:5] C,3B,,/A,,/B,,4 | 
[V:1] A4A2A2- | 
[V:2] z8 | 
[V:3] z8 | 
[V:4] A8 | 
[V:5] A,,8 | 
[V:1] AGFEF2A2- | 
[V:2] d4d4 | 
[V:3] z8 | 
[V:4] D8 | 
[V:5] z8 | 
[V:1] ABc4BA | 
[V:2] A4c4 | 
[V:3] z8 | 
[V:4] z8 | 
[V:5] z8 | 
[V:1] GFEDECF2- | 
[V:2] B4A4 | 
[V:3] z8 | 
[V:4] z8 | 
[V:5] z8 | 
[V:1] FEE4D2 | 
[V:2] G3F/E/F4 | 
[V:3] z8 | 
[V:4] z8 | 
[V:5] z8 | 
[V:1] E2E4E2 | 
[V:2] E2c4c2 | 
[V:3] z8 | 
[V:4] z2A4A2 | 
[V:5] A,,4A,,4 | 
[V:1] F2F2G4 | 
[V:2] d2d2e4 | 
[V:3] z8 | 
[V:4] A2A2c4 | 
[V:5] D,4C,4 | 
[V:1] G2E2E3D/E/ | 
[V:2] e3dcBc2- | 
[V:3] z8 | 
[V:4] G4G4 | 
[V:5] C,4C,4 | 
[V:1] E4z2D2 | 
[V:2] c2BAB4 | 
[V:3] z8 | 
[V:4] G8 | 
[V:5] G,,4G,,4 | 
[V:1] E4E4 | 
[V:2] c4z2c2- | 
[V:3] z8 | 
[V:4] z2C2G4 | 
[V:5] z4C,4 | 
[V:1] E4A4 | 
[V:2] c2c2c4 | 
[V:3] z8 | 
[V:4] A4A2E2- | 
[V:5] A,,4A,,4 | 
[V:1] G3F/E/F4 | 
[V:2] B3cd4 | 
[V:3] z8 | 
[V:4] EFG2A2B2 | 
[V:5] E,4D,4 | 
[V:1] E4c4 | 
[V:2] G4E2G2- | 
[V:3] z8 | 
[V:4] c4c4 | 
[V:5] C,8 | 
[V:1] B3A/G/A4 | 
[V:2] GAB2c2d2 | 
[V:3] z8 | 
[V:4] d4z2A2 | 
[V:5] G,4F,4 | 
[V:1] G4z4 | 
[V:2] e4z4 | 
[V:3] z8 | 
[V:4] B2c4A2 | 
[V:5] E,3D,E,2F,2- | 
[V:1] z8 | 
[V:2] z8 | 
[V:3] z8 | 
[V:4] c2d3cBA | 
[V:5] F,2D,2F,2G,2 | 
[V:1] z2G4E2 | 
[V:2] e3d/c/B2c2- | 
[V:3] z8 | 
[V:4] G4z4 | 
[V:5] E,4z4 | 
[V:1] G2A3GFE | 
[V:2] c2A2c2d2 | 
[V:3] z8 | 
[V:4] z8 | 
[V:5] z8 | 
[V:1] D4z2G2- | 
[V:2] B4e4 | 
[V:3] z8 | 
[V:4] z4B3A | 
[V:5] G,3F,E,D,E,2- | 
[V:1] GFEDECc2- | 
[V:2] e4e3d | 
[V:3] z8 | 
[V:4] B2c2c3A | 
[V:5] E,D,C,B,,A,,2A,2- | 
[V:1] cBA4^G2 | 
[V:2] e2f2e4 | 
[V:3] z8 | 
[V:4] c2d2B4 | 
[V:5] A,2D,2E,4 | 
[V:1] A4z2E2- | 
[V:2] c8 | 
[V:3] z8 | 
[V:4] A4G4 | 
[V:5] A,,4C,4- | 
[V:1] EFG3FED | 
[V:2] c4c4 | 
[V:3] G8 | 
[V:4] E8- | 
[V:5] C,4C,4 | 
[V:1] C3A,A2A2- | 
[V:2] e4e4 | 
[V:3] A8- | 
[V:4] E4E4 | 
[V:5] A,,4A,,4 | 
[V:1] A2A2d4 | 
[V:2] d4d4 | 
[V:3] A8 | 
[V:4] F4F4 | 
[V:5] D,4D,4 | 
[V:1] d2B3cd2- | 
[V:2] d8 | 
[V:3] B8 | 
[V:4] G8 | 
[V:5] G,,8 | 
[V:1] d2cBA3B | 
[V:2] d6d2 | 
[V:3] A8- | 
[V:4] F4F4 | 
[V:5] D,6D,2 | 
[V:1] c6c2 | 
[V:2] e8 | 
[V:3] A8 | 
[V:4] E2E2E4 | 
[V:5] A,,4A,,4 | 
[V:1] c4c4 | 
[V:2] e4e3f | 
[V:3] G8- | 
[V:4] E3D/C/E4- | 
[V:5] C,6B,,A,, | 
[V:1] B4B4 | 
[V:2] g8 | 
[V:3] G8 | 
[V:4] E2D2D4 | 
[V:5] G,,4G,,4 | 
[V:1] A6GF | 
[V:2] z2d3ef2- | 
[V:3] F8- | 
[V:4] z4A4 | 
[V:5] D,4D,4- | 
[V:1] F2D2A4 | 
[V:2] fdf4ed | 
[V:3] F8 | 
[V:4] d4d3c/d/ | 
[V:5] D,2D,2D,4 | 
[V:1] A4z2A2 | 
[V:2] c4c3B/A/ | 
[V:3] E8- | 
[V:4] e8 | 
[V:5] A,,8 | 
[V:1] G4G4 | 
[V:2] e4z2e2 | 
[V:3] E8- | 
[V:4] z2B3A/B/c2 | 
[V:5] z8 | 
[V:1] G3ABcB2- | 
[V:2] e3fgeg2- | 
[V:3] E8- | 
[V:4] B2e4dc | 
[V:5] z8 | 
[V:1] BcA4^G2 | 
[V:2] gfede4 | 
[V:3] E8 | 
[V:4] BAc2B4 | 
[V:5] z8 | 
[V:1] A8 | 
[V:2] c4d4 | 
[V:3] F8 | 
[V:4] A4z2D2 | 
[V:5] z4D,4 | 
[V:1] z8 | 
[V:2] B3cd2c2 | 
[V:3] G8 | 
[V:4] D2E2D2E2- | 
[V:5] G,,3A,,B,,2C,2- | 
[V:1] z8 | 
[V:2] e4d2g2- | 
[V:3] G8- | 
[V:4] E2DCD2E2 | 
[V:5] C,2B,,A,,B,,2C,2 | 
[V:1] G3AB2c2 | 
[V:2] gfe2d2e2- | 
[V:3] G8- | 
[V:4] C4z4 | 
[V:5] z4G,,2C,2- | 
[V:1] c3B/A/B2c2- | 
[V:2] e2dcd2e2 | 
[V:3] G8- | 
[V:4] z2E2D2C2 | 
[V:5] C,2C,2G,,2C,2 | 
[V:1] cCE2D2E2- | 
[V:2] z2c2B2c2- | 
[V:3] G8 | 
[V:4] E3D/C/D2C2 | 
[V:5] z4G,,2C,2- | 
[V:1] E2DCD2E2 | 
[V:2] c2BAB2c2- | 
[V:3] z8 | 
[V:4] G6G2 | 
[V:5] C,2C,2G,,2C,2 | 
[V:1] E2F3EF2- | 
[V:2] c2d3cd2 | 
[V:3] z8 | 
[V:4] A4A4 | 
[V:5] A,,2D,3A,,D,2 | 
[V:1] FEE4D2 | 
[V:2] B2c2A4 | 
[V:3] z8 | 
[V:4] G3F/E/F4 | 
[V:5] E,2C,2D,4 | 
[V:1] E8 | 
[V:2] B4c4 | 
[V:3] z8 | 
[V:4] E8 | 
[V:5] z4A,,4 | 
[V:1] z8 | 
[V:2] B2e4e2- | 
[V:3] G8 | 
[V:4] z4B4 | 
[V:5] E,4E,4 | 
[V:1] z4A4 | 
[V:2] e2dce3f | 
[V:3] A8 | 
[V:4] c4c4 | 
[V:5] A,,8 | 
[V:1] B4G4 | 
[V:2] g3f/e/d4 | 
[V:3] G8 | 
[V:4] d4B4 | 
[V:5] z8 | 
[V:1] A4A3A | 
[V:2] z2f4f2 | 
[V:3] F8- | 
[V:4] c4c4- | 
[V:5] z8 | 
[V:1] A2A2A2A2 | 
[V:2] f2f2f4 | 
[V:3] F8 | 
[V:4] c2c2c4 | 
[V:5] z8 | 
[V:1] A2A2A2GF | 
[V:2] z2c2c2d2 | 
[V:3] z8 | 
[V:4] F2F2F2ED | 
[V:5] z8 | 
[V:1] G2A4GF | 
[V:2] B2A2z2d2 | 
[V:3] z8 | 
[V:4] E2F2D4 | 
[V:5] z8 | 
[V:1] G2A4G2 | 
[V:2] B2c2d4 | 
[V:3] z8 | 
[V:4] z2A2B4 | 
[V:5] z8 | 
[V:1] G8 | 
[V:2] z2e2e3d | 
[V:3] z8 | 
[V:4] B4z2B2 | 
[V:5] E,8 | 
[V:1] z8 | 
[V:2] efg3fed | 
[V:3] z8 | 
[V:4] c2B3AG2- | 
[V:5] E,4E,4 | 
[V:1] z8 | 
[V:2] e2z2e3d/c/ | 
[V:3] z8 | 
[V:4] GFEDCDEF | 
[V:5] C,3D,E,2C,2 | 
[V:1] z8 | 
[V:2] BGc4B2 | 
[V:3] z8 | 
[V:4] G2A2F4 | 
[V:5] E,2F,2D,4 | 
[V:1] E6F2 | 
[V:2] c4z2c2 | 
[V:3] z4G4 | 
[V:4] G4c4 | 
[V:5] C,8 | 
[V:1] G4G4 | 
[V:2] d4d4 | 
[V:3] G8 | 
[V:4] B4B4 | 
[V:5] z4G,,4 | 
[V:1] A4A4- | 
[V:2] d4d4 | 
[V:3] F8 | 
[V:4] A4A4 | 
[V:5] D,4D,4 | 
[V:1] A2c4BA | 
[V:2] e8 | 
[V:3] E8 | 
[V:4] A6c2- | 
[V:5] A,,4A,,4 | 
[V:1] G4c4 | 
[V:2] e6f2 | 
[V:3] E8 | 
[V:4] c2BAG4- | 
[V:5] C,6B,,A,, | 
[V:1] B4B4 | 
[V:2] g8 | 
[V:3] z8 | 
[V:4] G2FED3E | 
[V:5] G,,4G,,4 | 
[V:1] A3GFEF2- | 
[V:2] f3edcd2 | 
[V:3] z8 | 
[V:4] FGA3GA2 | 
[V:5] D,4D,4 | 
[V:1] FEE4D2 | 
[V:2] B2c2A3B | 
[V:3] z8 | 
[V:4] G3F/E/F4 | 
[V:5] E,2C,2D,4 | 
[V:1] E8- | 
[V:2] c8 | 
[V:3] z8 | 
[V:4] E4E4 | 
[V:5] A,,8 | 
[V:1] E8 ||  
[V:2] B8 ||  
[V:3] E8 ||  
[V:4] G8 ||  
[V:5] E,,8 ||  
[V:1]  [K:C] [K:clef=treble][M:2/1]z8 | 
[V:2]  [K:C] [K:clef=treble-8][M:2/1]A8 | 
[V:3]  [K:C] [K:clef=treble-8][M:2/1]z8 | 
[V:4]  [K:C] [K:clef=treble-8][M:2/1]z8 | 
[V:5]  [K:C] [K:clef=bass][M:2/1]z8 | 
[V:1] E8 | 
[V:2] c4c4 | 
[V:3] z8 | 
[V:4] z8 | 
[V:5] z8 | 
[V:1] G4G4 | 
[V:2] B4c4 | 
[V:3] z8 | 
[V:4] z8 | 
[V:5] z8 | 
[V:1] F4G4 | 
[V:2] d4c4- | 
[V:3] z8 | 
[V:4] z8 | 
[V:5] z8 | 
[V:1] A8 | 
[V:2] c2BAc4- | 
[V:3] z8 | 
[V:4] z8 | 
[V:5] A,,8 | 
[V:1] G8 | 
[V:2] c2d2e4 | 
[V:3] z8 | 
[V:4] E8 | 
[V:5] C,4C,4 | 
[V:1] z8 | 
[V:2] z8 | 
[V:3] z8 | 
[V:4] G4G4 | 
[V:5] B,,4B,,4 | 
[V:1] z8 | 
[V:2] z8 | 
[V:3] z8 | 
[V:4] F4G4 | 
[V:5] D,4C,4- | 
[V:1] z8 | 
[V:2] z8 | 
[V:3] z8 | 
[V:4] A8 | 
[V:5] C,2B,,A,,C,3D, | 
[V:1] z4G4 | 
[V:2] e8 | 
[V:3] z8 | 
[V:4] G4z4 | 
[V:5] E,8 | 
[V:1] G3A/B/c2B2- | 
[V:2] e4e4 | 
[V:3] z8 | 
[V:4] z8 | 
[V:5] z8 | 
[V:1] BAd2c2B2 | 
[V:2] d4e4 | 
[V:3] z8 | 
[V:4] z8 | 
[V:5] z8 | 
[V:1] A3DD4 | 
[V:2] f6f2 | 
[V:3] z8 | 
[V:4] z8 | 
[V:5] z8 | 
[V:1] z4G4- | 
[V:2] e4e4- | 
[V:3] z8 | 
[V:4] c6c2 | 
[V:5] C,6C,2 | 
[V:1] G2G2G4 | 
[V:2] e2e2d4 | 
[V:3] z8 | 
[V:4] c4B4 | 
[V:5] C,4G,4 | 
[V:1] G4G4 | 
[V:2] e4e4 | 
[V:3] z8 | 
[V:4] B4c4- | 
[V:5] E,4C,4 | 
[V:1] A8 | 
[V:2] A4c4- | 
[V:3] z8 | 
[V:4] c4A4 | 
[V:5] F,8 | 
[V:1] G8 | 
[V:2] c2B2B4 | 
[V:3] z8 | 
[V:4] z2e2e3d/c/ | 
[V:5] E,4E,4 | 
[V:1] z8 | 
[V:2] z4z2C2- | 
[V:3] z8 | 
[V:4] B2c2G4 | 
[V:5] E,4E,4 | 
[V:1] z8 | 
[V:2] CDEFGABc | 
[V:3] z8 | 
[V:4] G4z4 | 
[V:5] C,4E,4 | 
[V:1] z8 | 
[V:2] AGc4B2 | 
[V:3] z8 | 
[V:4] z4F4 | 
[V:5] F,4D,4 | 
[V:1] E8 | 
[V:2] c4c4 | 
[V:3] z8 | 
[V:4] G4G4 | 
[V:5] C,8 | 
[V:1] E4E4 | 
[V:2] c4c4 | 
[V:3] z8 | 
[V:4] A8 | 
[V:5] z8 | 
[V:1] F3E/D/E2F2- | 
[V:2] d3cB2c2- | 
[V:3] z8 | 
[V:4] D2F2G2A2- | 
[V:5] z8 | 
[V:1] FEE4D2 | 
[V:2] cBB4A2 | 
[V:3] z8 | 
[V:4] AEG2F4 | 
[V:5] z8 | 
[V:1] E8 | 
[V:2] B4c2e2 | 
[V:3] z8 | 
[V:4] E4A4 | 
[V:5] z4A,,4 | 
[V:1] z4G4 | 
[V:2] e3d/c/e4 | 
[V:3] B8 | 
[V:4] G4G3F/G/ | 
[V:5] E,4E,4 | 
[V:1] A4B4 | 
[V:2] f4z2g2- | 
[V:3] d8 | 
[V:4] F2A2G4 | 
[V:5] D,4G,,4 | 
[V:1] c8 | 
[V:2] gfedc3B/A/ | 
[V:3] e8 | 
[V:4] z2G2E2G2 | 
[V:5] C,8 | 
[V:1] B6c2- | 
[V:2] d6e2- | 
[V:3] g8 | 
[V:4] z2G4CD | 
[V:5] G,,4z4 | 
[V:1] c2B2c3B/A/ | 
[V:2] e2d2e3d/c/ | 
[V:3] g8 | 
[V:4] EFG2C4 | 
[V:5] z8 | 
[V:1] B8 | 
[V:2] d3cBAG2- | 
[V:3] g8 | 
[V:4] GABcd2e2 | 
[V:5] z2G,3F,E,D, | 
[V:1] z4B4 | 
[V:2] GEe6 | 
[V:3] g8 | 
[V:4] e3d/c/B4 | 
[V:5] C,3D,E,4 | 
[V:1] c4c4 | 
[V:2] e4f4 | 
[V:3] a8 | 
[V:4] A4F2F2 | 
[V:5] A,,4z4 | 
[V:1] B4c4 | 
[V:2] d4e4 | 
[V:3] g8 | 
[V:4] G4E4 | 
[V:5] z4C,4 | 
[V:1] A2d3c/B/A2- | 
[V:2] d8 | 
[V:3] f8 | 
[V:4] z4A4 | 
[V:5] D,2D,2D,4 | 
[V:1] ABc2A2c2- | 
[V:2] c4z2c2 | 
[V:3] e8 | 
[V:4] A4A4 | 
[V:5] A,,8 | 
[V:1] cBAGA4 | 
[V:2] A4d4 | 
[V:3] f8 | 
[V:4] F4D4 | 
[V:5] z8 | 
[V:1] G4z4 | 
[V:2] B3AB2c2- | 
[V:3] e8- | 
[V:4] E3FG2A2- | 
[V:5] z8 | 
[V:1] z4z2G2 | 
[V:2] c2B2c2B2 | 
[V:3] e8 | 
[V:4] A2G2A2E2 | 
[V:5] z8 | 
[V:1] A3GA3G | 
[V:2] A2B2A2D2 | 
[V:3] d8- | 
[V:4] F2G2D4 | 
[V:5] z8 | 
[V:1] A2G4^F2 | 
[V:2] F2G2A4 | 
[V:3] d8 | 
[V:4] z4D4 | 
[V:5] z8 | 
[V:1] G4z2E2 | 
[V:2] B4c4 | 
[V:3] z8 | 
[V:4] G4G4 | 
[V:5] z4C,4 | 
[V:1] E4E4 | 
[V:2] c4c4 | 
[V:3] z8 | 
[V:4] A4A4 | 
[V:5] A,,8 | 
[V:1] D4E4 | 
[V:2] B4c4 | 
[V:3] z8 | 
[V:4] D4A4- | 
[V:5] B,,4A,,4 | 
[V:1] D8 | 
[V:2] B4B4 | 
[V:3] z8 | 
[V:4] A2^G^F^G4 | 
[V:5] B,,8 | 
[V:1] C4c4 | 
[V:2] E8 | 
[V:3] z8 | 
[V:4] A4z2A2 | 
[V:5] A,,4A,,4 | 
[V:1] B2G2A4 | 
[V:2] z4z2c2 | 
[V:3] z8 | 
[V:4] B2c4d2 | 
[V:5] E,4F,4 | 
[V:1] z2G2A4 | 
[V:2] B2c4d2 | 
[V:3] z8 | 
[V:4] e2E2F4 | 
[V:5] E,4z4 | 
[V:1] G2E4D2 | 
[V:2] e3dc2A2 | 
[V:3] z8 | 
[V:4] E4z2D2 | 
[V:5] z2E,2F,4 | 
[V:1] E4G4 | 
[V:2] B4c4 | 
[V:3] z8 | 
[V:4] G4G4 | 
[V:5] E,4E,4 | 
[V:1] F4F4- | 
[V:2] d4d4 | 
[V:3] z8 | 
[V:4] A4A4 | 
[V:5] D,8 | 
[V:1] F2F2F4 | 
[V:2] A4d4 | 
[V:3] z8 | 
[V:4] A8- | 
[V:5] D,6C,B,, | 
[V:1] z4E4 | 
[V:2] z2c4BA | 
[V:3] z8 | 
[V:4] A8 | 
[V:5] A,,8 | 
[V:1] E4F3E | 
[V:2] G2A3GAB | 
[V:3] z8 | 
[V:4] z8 | 
[V:5] z8 | 
[V:1] FEA4^G2 | 
[V:2] c2d2B4 | 
[V:3] z8 | 
[V:4] z8 | 
[V:5] z8 | 
[V:1] A4G2A2- | 
[V:2] A2D2E2F2 | 
[V:3] z8 | 
[V:4] z8 | 
[V:5] z8 | 
[V:1] AGG4^F2 | 
[V:2] G4A4 | 
[V:3] z8 | 
[V:4] z8 | 
[V:5] z8 | 
[V:1] G4z2G2 | 
[V:2] G4z2G2 | 
[V:3] z8 | 
[V:4] z4C4 | 
[V:5] E,8 | 
[V:1] F4F4 | 
[V:2] A4A4 | 
[V:3] d8 | 
[V:4] F4F4 | 
[V:5] D,4D,4 | 
[V:1] G4G4 | 
[V:2] c4z2c2 | 
[V:3] e8 | 
[V:4] E4E4 | 
[V:5] C,4C,4 | 
[V:1] A4A4 | 
[V:2] A4A4 | 
[V:3] f8 | 
[V:4] D4D4 | 
[V:5] F,4F,4 | 
[V:1] G6G2 | 
[V:2] c4z2c2 | 
[V:3] e8 | 
[V:4] E4z2G2 | 
[V:5] C,4z2C,2 | 
[V:1] B4B4 | 
[V:2] B4B4 | 
[V:3] d8 | 
[V:4] G4G4 | 
[V:5] G,,4B,,4 | 
[V:1] c4c4 | 
[V:2] E4E4 | 
[V:3] c8 | 
[V:4] A4A4 | 
[V:5] A,,4A,,4 | 
[V:1] [M:3/1]d8z4 | 
[V:2] [M:3/1]G4d8 | 
[V:3] [M:3/1]B12 | 
[V:4] [M:3/1]D8G4- | 
[V:5] [M:3/1]G,,12 | 
[V:1] G8A4 | 
[V:2] e8e4 | 
[V:3] c12 | 
[V:4] G4E4C4 | 
[V:5] C,8A,,4 | 
[V:1] A4A8 | 
[V:2] f4f8 | 
[V:3] d12 | 
[V:4] F4F8 | 
[V:5] D,4D,8 | 
[V:1] B8z4 | 
[V:2] g12 | 
[V:3] d12- | 
[V:4] D12 | 
[V:5] G,,12 | 
[V:1] A8A4 | 
[V:2] f8f4 | 
[V:3] d12 | 
[V:4] D8D4 | 
[V:5] z12 | 
[V:1] G4A6G2 | 
[V:2] e4f6e2 | 
[V:3] z12 | 
[V:4] E4D4F4 | 
[V:5] z12 | 
[V:1] c8B4 | 
[V:2] e2dcd8 | 
[V:3] z12 | 
[V:4] A4G8 | 
[V:5] z12 | 
[V:1] c12 | 
[V:2] c8z4 | 
[V:3] z12 | 
[V:4] C8z4 | 
[V:5] z12 | 
[V:1] z12 | 
[V:2] G12 | 
[V:3] z12 | 
[V:4] E12 | 
[V:5] C,12 | 
[V:1] z12 | 
[V:2] G4F4F4 | 
[V:3] z12 | 
[V:4] E4A4A4 | 
[V:5] C,4D,4D,4 | 
[V:1] z12 | 
[V:2] E4E4D4 | 
[V:3] z12 | 
[V:4] A4G4G4 | 
[V:5] A,,4C,4B,,4 | 
[V:1] z12 | 
[V:2] E4D4D4 | 
[V:3] z12 | 
[V:4] A4A4^G4 | 
[V:5] A,,4B,,4B,,4 | 
[V:1] [M:2/1]c8 | 
[V:2] [M:2/1]E4z2e2- | 
[V:3] [M:2/1]z8 | 
[V:4] [M:2/1]A8 | 
[V:5] [M:2/1]A,,8 | 
[V:1] B4A4- | 
[V:2] e2d3cf2- | 
[V:3] z8 | 
[V:4] z8 | 
[V:5] z8 | 
[V:1] A2G2F3E/D/ | 
[V:2] fee4d2 | 
[V:3] z8 | 
[V:4] z8 | 
[V:5] z8 | 
[V:1] C8 | 
[V:2] e8 | 
[V:3] z8 | 
[V:4] A8 | 
[V:5] z4A,,4 | 
[V:1] z8 | 
[V:2] E4z4 | 
[V:3] z8 | 
[V:4] G2G3FED | 
[V:5] C,4C,4 | 
[V:1] z8 | 
[V:2] z8 | 
[V:3] z8 | 
[V:4] C2c4B2 | 
[V:5] E,4D,4 | 
[V:1] E3DEFG2- | 
[V:2] G8 | 
[V:3] z8 | 
[V:4] c8 | 
[V:5] C,8 | 
[V:1] G2FED2E2 | 
[V:2] E4G4 | 
[V:3] z8 | 
[V:4] z8 | 
[V:5] z8 | 
[V:1] F2E4D2 | 
[V:2] A4F4 | 
[V:3] z8 | 
[V:4] z8 | 
[V:5] z8 | 
[V:1] E4z4 | 
[V:2] E4z4 | 
[V:3] z8 | 
[V:4] z8 | 
[V:5] z8 | 
[V:1] [M:3/1]c8c4 | 
[V:2] [M:3/1]E8e4 | 
[V:3] [M:3/1]z12 | 
[V:4] [M:3/1]A8A4 | 
[V:5] [M:3/1]A,,8A,,4 | 
[V:1] c8B4 | 
[V:2] e8e4 | 
[V:3] z12 | 
[V:4] A8G4 | 
[V:5] A,,8E,4 | 
[V:1] A4A4^G4 | 
[V:2] d4e4e4 | 
[V:3] z12 | 
[V:4] A4B4B4 | 
[V:5] F,4E,4E,4 | 
[V:1] [M:2/1]A4G4 | 
[V:2] [M:2/1]c6BA | 
[V:3] [M:2/1]z8 | 
[V:4] [M:2/1]A4E3F | 
[V:5] [M:2/1]A,,4C,4 | 
[V:1] G8 | 
[V:2] B3GG4 | 
[V:3] d8 | 
[V:4] G3AB4 | 
[V:5] G,,8 | 
[V:1] G4z2G2- | 
[V:2] z2G2E3F | 
[V:3] e8 | 
[V:4] c6BA | 
[V:5] C,8 | 
[V:1] GAB3AGF | 
[V:2] G3AB4 | 
[V:3] d8 | 
[V:4] B3GG4- | 
[V:5] z8 | 
[V:1] G3A/B/c4 | 
[V:2] E3FG2A2 | 
[V:3] c8 | 
[V:4] G4E4 | 
[V:5] C,6B,,A,, | 
[V:1] z2G4FE | 
[V:2] z2D2G4 | 
[V:3] d8 | 
[V:4] G3F/E/D4 | 
[V:5] B,,2G,,2G,,4 | 
[V:1] F3DD4 | 
[V:2] A8 | 
[V:3] d8 | 
[V:4] z2F4ED | 
[V:5] D,6C,B,, | 
[V:1] A4A4 | 
[V:2] A8 | 
[V:3] c8 | 
[V:4] E3CC4 | 
[V:5] A,,4A,,4 | 
[V:1] [M:3/1]B8z4 | 
[V:2] [M:3/1]D8d4 | 
[V:3] [M:3/1]B12 | 
[V:4] [M:3/1]G12 | 
[V:5] [M:3/1]G,,8G,,4 | 
[V:1] G4G4G4- | 
[V:2] d4d4d4 | 
[V:3] B12 | 
[V:4] z12 | 
[V:5] G,4G,8 | 
[V:1] G4G8 | 
[V:2] e12 | 
[V:3] z12 | 
[V:4] c4c4c4 | 
[V:5] G,4G,8 | 
[V:1] F4F8 | 
[V:2] d4d8 | 
[V:3] z12 | 
[V:4] A12 | 
[V:5] D,4D,8 | 
[V:1] E8E4 | 
[V:2] c8c4 | 
[V:3] z12 | 
[V:4] A4A8 | 
[V:5] A,,8A,,4 | 
[V:1] E8E4 | 
[V:2] c8c4 | 
[V:3] z12 | 
[V:4] G8G4 | 
[V:5] C,8C,4 | 
[V:1] D8G4 | 
[V:2] B6c2d4 | 
[V:3] z12 | 
[V:4] G6A2B4 | 
[V:5] G,,8G,,4 | 
[V:1] G6F2G4 | 
[V:2] e8e4 | 
[V:3] z12 | 
[V:4] c8B4 | 
[V:5] C,6D,2E,4 | 
[V:1] A8^G4 | 
[V:2] d4e8 | 
[V:3] z12 | 
[V:4] A4B8 | 
[V:5] F,4E,8 | 
[V:1] [M:2/1]A4z2c2 | 
[V:2] [M:2/1]e3dc2A2 | 
[V:3] [M:2/1]E8 | 
[V:4] [M:2/1]A3Bcde2- | 
[V:5] [M:2/1]A,,4z2A,,2 | 
[V:1] B2B2A3G | 
[V:2] B2e2c2e2- | 
[V:3] G4A4 | 
[V:4] e2E2E2E2 | 
[V:5] E,2E,2A,,4 | 
[V:1] ABc3B/A/G2 | 
[V:2] e2e2e2e2 | 
[V:3] c4c4 | 
[V:4] z2E2E2E2 | 
[V:5] A,,3G,,A,,B,,C,2 | 
[V:1] A2G2c4 | 
[V:2] e4z2e2 | 
[V:3] c8 | 
[V:4] CDEFG2A2- | 
[V:5] A,,2C,3B,,A,,G,, | 
[V:1] c2c4B2 | 
[V:2] e3fg2g2- | 
[V:3] c4d4 | 
[V:4] A2A2D2G2 | 
[V:5] A,,2A,,2G,,4 | 
[V:1] c4z2G2 | 
[V:2] gf/e/f2g4 | 
[V:3] c4B4 | 
[V:4] A4G4 | 
[V:5] z4E,4 | 
[V:1] A2A3G/F/G2 | 
[V:2] c2d2e4- | 
[V:3] A4B4 | 
[V:4] z2D2G4 | 
[V:5] F,4E,4 | 
[V:1] A4A2A2 | 
[V:2] e2e2d4 | 
[V:3] A8 | 
[V:4] z2E2F2F2 | 
[V:5] A,,4D,2D,2 | 
[V:1] B3ABcd2- | 
[V:2] z4z2d2 | 
[V:3] G8 | 
[V:4] D4d3c/B/ | 
[V:5] G,,8- | 
[V:1] dcc4B2 | 
[V:2] B2G2g4 | 
[V:3] z4G4 | 
[V:4] B2c2d4 | 
[V:5] G,,8 | 
[V:1] c3BAGA2- | 
[V:2] e4f4 | 
[V:3] A8 | 
[V:4] c4F4 | 
[V:5] z8 | 
[V:1] A2GFG4 | 
[V:2] d8 | 
[V:3] B8 | 
[V:4] G4G4 | 
[V:5] z4G,,4 | 
[V:1] A8 | 
[V:2] d4d2cd | 
[V:3] A8 | 
[V:4] F3EDCE2 | 
[V:5] D,6A,,2 | 
[V:1] z4B4 | 
[V:2] efg4d2 | 
[V:3] G8 | 
[V:4] E3D/C/D4 | 
[V:5] C,3B,,/A,,/G,,4 | 
[V:1] A3GABc2 | 
[V:2] f3e/d/c4 | 
[V:3] F4E4 | 
[V:4] z2A4A2 | 
[V:5] D,4A,,4 | 
[V:1] A2d3cBA | 
[V:2] d4z2d2 | 
[V:3] F4G4 | 
[V:4] A4B4 | 
[V:5] D,4G,,4 | 
[V:1] G4G3A | 
[V:2] e4e4 | 
[V:3] G8 | 
[V:4] c4C4 | 
[V:5] C,8 | 
[V:1] B3cd4 | 
[V:2] d4B4 | 
[V:3] z4G4 | 
[V:4] D4D4 | 
[V:5] B,,8 | 
[V:1] z2c4c2 | 
[V:2] c4z2c2 | 
[V:3] A4G4 | 
[V:4] E4e4 | 
[V:5] A,,4C,4 | 
[V:1] A2d3cBA | 
[V:2] f4d2g2- | 
[V:3] F4G4 | 
[V:4] d3cBAGF | 
[V:5] D,4G,,4 | 
[V:1] B2G3FE2 | 
[V:2] gfede4 | 
[V:3] G8 | 
[V:4] E4E4 | 
[V:5] z4C,4 | 
[V:1] FEDCD4 | 
[V:2] d2A2A4 | 
[V:3] F8 | 
[V:4] z4D4 | 
[V:5] D,4D,4 | 
[V:1] E8- | 
[V:2] z2c4BA | 
[V:3] E8 | 
[V:4] A4A4 | 
[V:5] A,,4A,,4 | 
[V:1] E8- | 
[V:2] B8 | 
[V:3] E8- | 
[V:4] G4G4 | 
[V:5] E,,8- | 
[V:1] E8 |]  
[V:2] B8 |]  
[V:3] E8 |]  
[V:4] G8 |]  
[V:5] E,,8 |]  



